src/custom/assets/cow-swap/transaction-arrows.svg

<svg fill="none" height="16" viewBox="0 0 18 16" width="18" xmlns="http://www.w3.org/2000/svg"><path d="m9.04213 4.52864 4.24287-4.242854 4.2428 4.242854-1.212 1.212-2.1745-2.17371.0008 11.29027h-1.7143v-11.29027l-2.1737 2.17371zm-8.571427 6.94286 1.211997-1.212 2.17372 2.1737v-11.29027h1.71428v11.29027l2.17372-2.1737 1.212 1.212-4.24286 4.2429z" fill="#43758c"/></svg>

<svg width="18" height="16" viewBox="0 0 18 16" fill="none" xmlns="http://www.w3.org/2000/svg">
<path d="M9.04213 4.52864L13.285 0.285786L17.5278 4.52864L16.3158 5.74064L14.1413 3.56693L14.1421 14.8572H12.4278V3.56693L10.2541 5.74064L9.04213 4.52864ZM0.470703 11.4715L1.6827 10.2595L3.85642 12.4332L3.85642 1.14293H5.5707V12.4332L7.74442 10.2595L8.95642 11.4715L4.71356 15.7144L0.470703 11.4715Z" fill="#43758C"/>
</svg>
